flaticon/technology/game-console-4.svg

<svg xmlns="http://www.w3.org/2000/svg" width="32" height="32" viewBox="0 0 24 24">
    <path d="M 23.964844 18.835938 C 24.039062 18.378906 24 17.265625 23.816406 16.761719 C 23.421875 15.675781 22.359375 14.953125 21.15625 14.953125 C 21.140625 14.953125 21.128906 14.953125 21.113281 14.953125 C 20.917969 14.957031 20.695312 15 20.425781 15.082031 C 19.976562 15.222656 19.515625 15.320312 19.050781 15.382812 L 19.050781 3.007812 C 19.050781 2.8125 18.914062 2.644531 18.722656 2.609375 L 6.460938 0.15625 C 6.445312 0.152344 6.429688 0.160156 6.414062 0.15625 C 6.390625 0.15625 6.371094 0.148438 6.347656 0.148438 L 1.445312 0.558594 C 1.234375 0.574219 1.070312 0.753906 1.070312 0.964844 L 1.070312 21.710938 L 0 23.851562 L 20.121094 23.851562 L 19.050781 21.710938 L 19.050781 20.992188 L 19.601562 20.992188 L 20.347656 22.585938 C 20.585938 23.332031 21.292969 23.851562 22.078125 23.851562 C 23.082031 23.851562 23.894531 23.035156 23.894531 22.007812 L 23.777344 20.3125 C 23.742188 19.792969 23.761719 19.722656 23.816406 19.535156 C 23.855469 19.398438 23.910156 19.207031 23.964844 18.835938 Z M 15.347656 15.085938 C 15.074219 15.003906 14.769531 14.957031 14.445312 14.953125 C 14.429688 14.953125 14.417969 14.953125 14.402344 14.953125 C 13.199219 14.953125 12.132812 15.679688 11.738281 16.765625 C 11.558594 17.269531 11.519531 18.382812 11.589844 18.835938 C 11.648438 19.203125 11.703125 19.398438 11.742188 19.535156 C 11.792969 19.722656 11.8125 19.792969 11.777344 20.308594 L 11.703125 21.398438 L 6.789062 21.398438 L 6.789062 8.789062 L 18.234375 10.3125 L 18.234375 15.453125 C 17.289062 15.492188 16.320312 15.375 15.347656 15.085938 Z M 1.886719 9.105469 L 3.523438 8.96875 L 3.523438 21.398438 L 1.886719 21.398438 Z M 4.339844 8.902344 L 5.972656 8.765625 L 5.972656 21.398438 L 4.339844 21.398438 Z M 18.234375 9.488281 L 6.792969 7.964844 L 6.792969 1.054688 L 18.234375 3.34375 Z M 5.972656 7.945312 L 4.339844 8.082031 L 4.339844 1.136719 L 5.972656 1 Z M 3.523438 1.203125 L 3.523438 8.148438 L 1.886719 8.285156 L 1.886719 1.339844 Z M 1.324219 23.035156 L 1.730469 22.214844 L 6.128906 22.214844 L 6.539062 23.035156 Z M 7.453125 23.035156 L 7.042969 22.214844 L 11.667969 22.214844 C 11.675781 22.269531 11.683594 22.316406 11.695312 22.367188 C 11.695312 22.382812 11.699219 22.398438 11.703125 22.414062 C 11.722656 22.515625 11.757812 22.617188 11.792969 22.710938 C 11.800781 22.730469 11.8125 22.75 11.820312 22.769531 C 11.859375 22.863281 11.90625 22.949219 11.960938 23.03125 L 7.453125 23.03125 Z M 14.996094 23.035156 C 15.019531 22.996094 15.039062 22.957031 15.0625 22.917969 C 15.074219 22.890625 15.089844 22.867188 15.105469 22.839844 C 15.144531 22.761719 15.179688 22.675781 15.207031 22.585938 L 15.382812 22.214844 L 18.390625 22.214844 L 18.800781 23.035156 Z M 18.234375 21.398438 L 15.769531 21.398438 C 15.859375 21.214844 15.921875 21.082031 15.964844 20.992188 L 18.234375 20.992188 Z M 23.160156 18.710938 C 23.109375 19.03125 23.0625 19.1875 23.027344 19.316406 C 22.953125 19.589844 22.917969 19.734375 22.964844 20.367188 L 23.078125 22.035156 C 23.078125 22.585938 22.628906 23.03125 22.078125 23.03125 C 21.640625 23.03125 21.25 22.738281 21.121094 22.320312 L 20.121094 20.171875 L 15.757812 20.171875 C 15.488281 20.113281 15.445312 20.175781 14.867188 21.398438 L 14.804688 21.527344 C 14.789062 21.5625 14.773438 21.597656 14.753906 21.632812 C 14.691406 21.765625 14.621094 21.914062 14.546875 22.070312 L 14.457031 22.265625 L 14.433594 22.320312 C 14.304688 22.746094 13.921875 23.03125 13.476562 23.03125 C 13.410156 23.03125 13.34375 23.027344 13.277344 23.011719 C 12.824219 22.921875 12.484375 22.523438 12.476562 22.046875 L 12.59375 20.367188 C 12.636719 19.734375 12.605469 19.589844 12.527344 19.316406 C 12.492188 19.1875 12.449219 19.03125 12.398438 18.710938 C 12.34375 18.371094 12.378906 17.398438 12.507812 17.042969 C 12.785156 16.277344 13.542969 15.773438 14.402344 15.773438 C 14.414062 15.773438 14.425781 15.773438 14.433594 15.773438 C 14.683594 15.773438 14.910156 15.808594 15.113281 15.867188 C 15.347656 15.9375 15.585938 16 15.820312 16.054688 C 15.824219 16.054688 15.824219 16.054688 15.828125 16.054688 C 16.515625 16.207031 17.203125 16.285156 17.878906 16.285156 C 18.070312 16.285156 18.277344 16.277344 18.496094 16.261719 C 19.230469 16.214844 19.960938 16.082031 20.667969 15.863281 C 20.902344 15.789062 21.046875 15.773438 21.125 15.773438 C 21.132812 15.773438 21.144531 15.769531 21.15625 15.769531 C 22.015625 15.769531 22.773438 16.277344 23.046875 17.039062 C 23.175781 17.398438 23.210938 18.371094 23.160156 18.710938 Z M 23.160156 18.710938"/>
    <path d="M21.09375 16.496094C20.195312 16.496094 19.460938 17.226562 19.460938 18.128906 19.460938 19.03125 20.195312 19.765625 21.09375 19.765625 21.996094 19.765625 22.730469 19.03125 22.730469 18.128906 22.730469 17.226562 21.996094 16.496094 21.09375 16.496094zM21.09375 18.945312C20.644531 18.945312 20.277344 18.582031 20.277344 18.128906 20.277344 17.679688 20.644531 17.3125 21.09375 17.3125 21.546875 17.3125 21.914062 17.679688 21.914062 18.128906 21.914062 18.582031 21.546875 18.945312 21.09375 18.945312zM14.507812 16.496094C13.605469 16.496094 12.871094 17.226562 12.871094 18.128906 12.871094 19.03125 13.605469 19.765625 14.507812 19.765625 15.410156 19.765625 16.140625 19.03125 16.140625 18.128906 16.140625 17.226562 15.410156 16.496094 14.507812 16.496094zM14.507812 18.945312C14.058594 18.945312 13.691406 18.582031 13.691406 18.128906 13.691406 17.679688 14.058594 17.3125 14.507812 17.3125 14.957031 17.3125 15.324219 17.679688 15.324219 18.128906 15.324219 18.582031 14.957031 18.945312 14.507812 18.945312zM18.644531 16.902344C18.417969 16.902344 18.234375 17.085938 18.234375 17.3125L17.417969 17.3125C17.417969 17.085938 17.234375 16.902344 17.007812 16.902344 16.78125 16.902344 16.601562 17.085938 16.601562 17.3125L16.601562 17.722656C16.601562 17.945312 16.78125 18.128906 17.007812 18.128906L18.644531 18.128906C18.867188 18.128906 19.050781 17.945312 19.050781 17.722656L19.050781 17.3125C19.050781 17.085938 18.867188 16.902344 18.644531 16.902344zM18.644531 16.902344"/>
</svg>

<svg xmlns="http://www.w3.org/2000/svg" width="32" height="32" viewBox="0 0 24 24">
    <path d="M23.965 18.836c.074-.457.035-1.57-.149-2.074-.394-1.086-1.457-1.809-2.66-1.809h-.043a2.574 2.574 0 0 0-.687.129c-.45.14-.91.238-1.375.3V3.009a.403.403 0 0 0-.328-.399L6.46.156c-.016-.004-.031.004-.047 0-.023 0-.043-.008-.066-.008l-4.903.41a.408.408 0 0 0-.375.407V21.71L0 23.85h20.121l-1.07-2.14v-.719h.55l.747 1.594a1.83 1.83 0 0 0 1.73 1.266 1.824 1.824 0 0 0 1.817-1.844l-.118-1.695c-.035-.52-.015-.59.04-.778.038-.137.093-.328.148-.7zm-8.617-3.75a3.287 3.287 0 0 0-.903-.133h-.043c-1.203 0-2.27.727-2.664 1.813-.18.504-.218 1.617-.148 2.07.058.367.113.562.152.7.051.187.07.257.035.773l-.074 1.09H6.79V8.788l11.445 1.524v5.14a8.822 8.822 0 0 1-2.886-.367zM1.887 9.106l1.636-.137v12.43H1.887zm2.453-.204l1.633-.136v12.632H4.34zm13.894.586L6.793 7.965v-6.91l11.441 2.289zM5.973 7.945l-1.633.137V1.137L5.973 1zm-2.45-6.742v6.945l-1.636.137V1.34zM1.324 23.035l.406-.82H6.13l.41.82zm6.13 0l-.411-.82h4.625c.008.055.016.101.027.152 0 .016.004.031.008.047.02.102.055.203.09.297.008.02.02.039.027.059.04.093.086.18.14.261H7.454zm7.542 0c.024-.039.043-.078.066-.117.012-.027.028-.05.043-.078.04-.078.075-.164.102-.254l.176-.371h3.008l.41.82zm3.238-1.637H15.77c.09-.183.152-.316.195-.406h2.27zm4.926-2.687c-.05.32-.098.477-.133.605-.074.274-.109.418-.062 1.051l.113 1.668a.999.999 0 0 1-1.957.285l-1-2.148h-4.363c-.27-.059-.313.004-.89 1.226l-.063.13c-.016.035-.032.07-.051.105l-.207.437-.09.196-.023.054a.993.993 0 0 1-1.157.692 1 1 0 0 1-.8-.965l.117-1.68c.043-.633.011-.777-.067-1.05-.035-.13-.078-.286-.129-.606-.054-.34-.02-1.313.11-1.668.277-.766 1.035-1.27 1.894-1.27h.032c.25 0 .476.036.68.094.234.07.472.133.706.188h.008c.688.152 1.375.23 2.05.23.192 0 .4-.008.618-.023a9.374 9.374 0 0 0 2.172-.399 1.58 1.58 0 0 1 .457-.09c.008 0 .02-.003.031-.003.86 0 1.617.507 1.89 1.27.13.358.165 1.331.114 1.67zm0 0"/>
    <path d="M21.094 16.496a1.635 1.635 0 1 0 .003 3.27 1.635 1.635 0 0 0-.003-3.27zm0 2.45a.816.816 0 1 1 0-1.634.817.817 0 0 1 0 1.633zm0 0M14.508 16.496a1.635 1.635 0 1 0-.003 3.27 1.635 1.635 0 0 0 .003-3.27zm0 2.45a.816.816 0 1 1 0-1.633.816.816 0 0 1 0 1.632zm0 0M18.645 16.902a.41.41 0 0 0-.41.41h-.817a.41.41 0 0 0-.41-.41.407.407 0 0 0-.406.41v.41c0 .223.18.407.406.407h1.637a.408.408 0 0 0 .406-.406v-.41a.41.41 0 0 0-.406-.41zm0 0"/>
</svg>
